X:20
T:O I Hae Seen the Roses Blaw
Z:Jack Campin, http://www.campin.me.uk/
S:Northumbrian Minstrelsy
M:6/8
L:1/8
K:G
D| G2   G (BA)  B| c2A F2
D|(G>A) G  B2   c| d2g d2
c| B2   c  d2   e|=f2d B2
G|(d>e) d (c>B) A| G3  G2||
d| g2   d  B2   G| c2A F2
D| g2   d  B2   c| e2g d2
c| B2   c  d2   e|=f2d B2
G|(d>e) d (cB)  A| G3  G2|]

